X: 802
T: A Trip to the Cottage.
C:J. O'Neill.
B:O'Neill's Music of Ireland
N:O'Neill's - 802
Z:Transcribed by Stephen Foy (shf@access.digex.net)
Z:abc 1.6
Z:Fermata above first repeat sign.
R:Jig
M:6/8
K:G
B/c/|dcd BGB|cBc AFA|DGG FAA|GBB ABc|\
dcd BGB|cBc AFA|EGG FGA|BGG G2:|
||d|gfe d2 d|edc Bcd|ecA dBG|FAG FED|\
gfe d2 d|edc Bcd|efg eag|fdd d2:|


